X:116
T:Jugler,The TS.116
M:6/8
L:1/8
Q:3/8=120
S:Thomas Sands’ MS,1810,Lincolnshire
R:jig
O:England;Lincolnshire
Z:vmp.Ruairidh Greig, 2011
K:Bb
B|fgab2c|defg2B|Acf dec|dBBB2B|
fga b2g|f=ef c2B|Acf Gf=e|fcAF2:|
|:F|ABcc2F|ABcF2F|Bcdd2G|BcdG2G|
cde edc|def gab|fBe dec|BFD”rep. mark added”B,2:|]

